X: 31453
T: Paddy Taylor's
R: jig
M: 6/8
K: Dmajor
|:A|FAF EFE|DFA d2 A|ded cAG|F/G/AF GED|
F/G/AF EFE|DF/G/A def|edc ABc|dfe d2:|
|:e|f2 a g2 e|fdB AFA|B2 G EE/F/G|A2 D FED|
ff/g/a gfe|fdB A3|BB/c/d ecA|dfe d2:|

